packages/ffe-icons/icons/filled/sm/align_vertical_center.svg

<svg xmlns="http://www.w3.org/2000/svg" height="20" viewBox="0 -960 960 960" width="20"><path d="M338.308-164.001q-15.769 0-27.077-11.308-11.307-11.307-11.307-27.076v-251.616H142.001q-11.05 0-18.525-7.418-7.475-7.418-7.475-18.384 0-10.966 7.475-18.581t18.525-7.615h157.923v-251.616q0-15.769 11.307-27.076 11.308-11.308 27.077-11.308 15.769 0 27.076 11.308 11.308 11.307 11.308 27.076v251.616h182.616v-143.616q0-15.769 11.308-27.076 11.307-11.308 27.076-11.308t27.077 11.308q11.307 11.307 11.307 27.076v143.616h181.923q11.05 0 18.525 7.418 7.475 7.418 7.475 18.384 0 10.966-7.475 18.581t-18.525 7.615H636.076v143.616q0 15.769-11.307 27.076-11.308 11.308-27.077 11.308-15.769 0-27.076-11.308-11.308-11.307-11.308-27.076v-143.616H376.692v251.616q0 15.769-11.308 27.076-11.307 11.308-27.076 11.308Z"/></svg>

<svg xmlns="http://www.w3.org/2000/svg" height="20" viewBox="0 -960 960 960" width="20"><path d="M338.31-164q-15.77 0-27.08-11.31-11.31-11.31-11.31-27.08V-454H142q-11.05 0-18.52-7.42-7.48-7.42-7.48-18.38 0-10.97 7.48-18.58Q130.95-506 142-506h157.92v-251.61q0-15.77 11.31-27.08Q322.54-796 338.31-796q15.77 0 27.07 11.31 11.31 11.31 11.31 27.08V-506h182.62v-143.61q0-15.77 11.31-27.08Q581.92-688 597.69-688t27.08 11.31q11.31 11.31 11.31 27.08V-506H818q11.05 0 18.52 7.42 7.48 7.42 7.48 18.38 0 10.97-7.48 18.58Q829.05-454 818-454H636.08v143.61q0 15.77-11.31 27.08Q613.46-272 597.69-272q-15.77 0-27.07-11.31-11.31-11.31-11.31-27.08V-454H376.69v251.61q0 15.77-11.31 27.08Q354.08-164 338.31-164Z"/></svg>
